.local/share/icons/Gruvbox-Plus-Dark/panel/22/wechat-tray.svg

<svg xmlns="http://www.w3.org/2000/svg" width="22" height="22" version="1.1">
 <defs>
  <style id="current-color-scheme" type="text/css">
   .ColorScheme-Text { color:#ebdbb2; } .ColorScheme-Highlight { color:#458588; }
  </style>
 </defs>
 <path style="fill:currentColor" class="ColorScheme-Text" d="m 9.9999998,3 a 7,6.5 0 0 0 -6.9999996,6.5 7,6.5 0 0 0 2,4.546875 l 0,2.953125 1.3203125,-1.980469 a 7,6.5 0 0 0 2.2617187,0.833985 C 8.2131046,15.143061 8.0000002,14.348082 8.0000002,13.5 c 0,-2.439883 1.7230416,-4.4546167 4.0488288,-5.1933594 A 1,1 0 0 1 11.999999,8 a 1,1 0 0 1 1,-1 1,1 0 0 1 1,1 c 1.061383,0 2.066598,0.2619524 2.943359,0.7167969 A 7,6.5 0 0 0 9.9999988,3 Z M 7.0000002,7 a 1,1 0 0 1 1,1 1,1 0 0 1 -1,1 1,1 0 0 1 -1,-1 1,1 0 0 1 1,-1 z M 14,9 A 5,4.5 0 0 0 8.9999998,13.5 5,4.5 0 0 0 14,18 5,4.5 0 0 0 16.810547,17.216797 L 18,19 18,16.191406 A 5,4.5 0 0 0 19,13.5 5,4.5 0 0 0 14,9 Z m -2,2 a 1,1 0 0 1 1,1 1,1 0 0 1 -1,1 1,1 0 0 1 -1,-1 1,1 0 0 1 1,-1 z m 4,0 a 1,1 0 0 1 1,1 1,1 0 0 1 -1,1 1,1 0 0 1 -1,-1 1,1 0 0 1 1,-1 z"/>
</svg>

<svg width="22" height="22" version="1.1" xmlns="http://www.w3.org/2000/svg">
  <defs>
    <style id="current-color-scheme" type="text/css">.ColorScheme-Text { color:#ebdbb2; } .ColorScheme-Highlight { color:#458588; } .ColorScheme-NeutralText { color:#fe8019; } .ColorScheme-PositiveText { color:#689d6a; } .ColorScheme-NegativeText { color:#fb4934; }</style>
  </defs>
  <path class="ColorScheme-Text" d="m10 3a7 6.5 0 0 0-7 6.5 7 6.5 0 0 0 2 4.547v2.953l1.32-1.98a7 6.5 0 0 0 2.262 0.834c-0.3689-0.7105-0.582-1.505-0.582-2.354 0-2.44 1.723-4.455 4.049-5.193a1 1 0 0 1-0.04883-0.3066 1 1 0 0 1 1-1 1 1 0 0 1 1 1c1.061 0 2.067 0.262 2.943 0.7168a7 6.5 0 0 0-6.943-5.717zm-3 4a1 1 0 0 1 1 1 1 1 0 0 1-1 1 1 1 0 0 1-1-1 1 1 0 0 1 1-1zm7 2a5 4.5 0 0 0-5 4.5 5 4.5 0 0 0 5 4.5 5 4.5 0 0 0 2.811-0.7832l1.189 1.783v-2.809a5 4.5 0 0 0 1-2.691 5 4.5 0 0 0-5-4.5zm-2 2a1 1 0 0 1 1 1 1 1 0 0 1-1 1 1 1 0 0 1-1-1 1 1 0 0 1 1-1zm4 0a1 1 0 0 1 1 1 1 1 0 0 1-1 1 1 1 0 0 1-1-1 1 1 0 0 1 1-1z" fill="currentColor"/>
</svg>
